X:44
T:Pumpkins and Snowmen
R:hornpipe
C:Paul S. Cranford
O:Cape Breton Island
N:Winston Fitzgerald made most of his recordings with Don's fiddle
S:http://www.cranfordpub.com
D:currently unrecorded
B:currently unpublished in book form
Z:psc
H:                                                        copyrights Cranford Publications, SOCAN
L:1/8
Q:333
M:C|
K:Ddor
z F|AGFE DCA,D|FDFG A2 (3(ABc)|d2 c2 AGFA|GFED C2 Cc|
AF (3(GFE) FEDC|DA,DF A2 (3(ABc)|d2 c2 AGFE|D2 D2 D2:|
|:(3(ABc)|d2 c2 edce|defg a3 f|(3gfg (3fgf edce|dcec A2 (3(ABc)|
[1d2 c2 edce|defg a3 f|(3gfg (3fgf edcG|AGFE D2:|
[2AF (3(GFE) FEDC|DA,DF A2 (3(ABc)|d2 c2 AGFE|D2 D2 D2|]
